image/icons/arrow.svg

<svg width="15" height="14" viewBox="0 0 15 14" fill="none" xmlns="http://www.w3.org/2000/svg">
<path fill-rule="evenodd" clip-rule="evenodd" d="M9.59478 6.87253C9.74906 7.02681 9.74906 7.2769 9.59478 7.43118L5.56715 11.4588C5.41287 11.6131 5.16278 11.6131 5.0085 11.4588L4.82225 11.2726C4.66797 11.1183 4.66797 10.8682 4.82225 10.7139L8.38431 7.15186L4.82225 3.5898C4.66797 3.43552 4.66797 3.18543 4.82225 3.03115L5.0085 2.8449C5.16278 2.69062 5.41287 2.69062 5.56715 2.8449L9.59478 6.87253Z" fill="black"/>
</svg>

<svg width="15" height="14" fill="none" xmlns="http://www.w3.org/2000/svg">
  <path fill-rule="evenodd" clip-rule="evenodd" d="M9.595 6.873a.395.395 0 0 1 0 .558L5.567 11.46a.395.395 0 0 1-.559 0l-.186-.186a.395.395 0 0 1 0-.56l3.562-3.561L4.822 3.59a.395.395 0 0 1 0-.559l.186-.186a.395.395 0 0 1 .56 0l4.027 4.028Z" fill="#000"/>
</svg>
